src/images/how-it-works-down-arrow.svg

<svg width="24" height="37" fill="none" xmlns="http://www.w3.org/2000/svg"><path d="M13.5 2c0-.8284-.6716-1.5-1.5-1.5s-1.5.6716-1.5 1.5h3Zm-2.5607 34.0607c.5858.5857 1.5356.5857 2.1214 0l9.5459-9.546c.5858-.5858.5858-1.5355 0-2.1213-.5858-.5858-1.5355-.5858-2.1213 0L12 32.8787l-8.4853-8.4853c-.5858-.5858-1.5355-.5858-2.1213 0-.5858.5858-.5858 1.5355 0 2.1213l9.5459 9.546ZM10.5 2v33h3V2h-3Z" fill="#1C383C"/></svg>

<svg width="24" height="37" viewBox="0 0 24 37" fill="none" xmlns="http://www.w3.org/2000/svg">
<path d="M13.5 2C13.5 1.17157 12.8284 0.5 12 0.5C11.1716 0.5 10.5 1.17157 10.5 2L13.5 2ZM10.9393 36.0607C11.5251 36.6464 12.4749 36.6464 13.0607 36.0607L22.6066 26.5147C23.1924 25.9289 23.1924 24.9792 22.6066 24.3934C22.0208 23.8076 21.0711 23.8076 20.4853 24.3934L12 32.8787L3.51472 24.3934C2.92893 23.8076 1.97918 23.8076 1.3934 24.3934C0.80761 24.9792 0.80761 25.9289 1.3934 26.5147L10.9393 36.0607ZM10.5 2L10.5 35L13.5 35L13.5 2L10.5 2Z" fill="#1C383C"/>
</svg>
